!!!!SEGMENT: Snf0122-Festum_nunc_celebre.krn
!!!id: Snf0122
!!!AGN: Motet
!!!voices: 4
!!!COM: Ludwig Senfl
!!!OTL: Festum nunc celebre
**kern	**text	**kern	**text	**kern	**text	**kern	**text
*part4	*part4	*part3	*part3	*part2	*part2	*part1	*part1
*staff4	*staff4	*staff3	*staff3	*staff2	*staff2	*staff1	*staff1
*I"Bassus	*	*I"Tenor	*	*I"Altus	*	*I"Superius	*
*I'B	*	*I'T	*	*I'A	*	*I'S	*
*clefF4	*	*clefGv2	*	*clefGv2	*	*clefG2	*
*	*	*	*	*	*	*	*
*k[]	*	*k[]	*	*k[]	*	*k[]	*
*	*	*	*	*	*	*	*
*M2/1	*	*M2/1	*	*M2/1	*	*M2/1	*
*met(C|)	*	*met(C|)	*	*met(C|)	*	*met(C|)	*
!!section: Prima pars: Festum nunc celebre
!!!OMD: Prima pars: Festum nunc celebre
=1	=1	=1	=1	=1	=1	=1	=1
0r	.	0r	.	0d	Fe-	0r	.
=2	=2	=2	=2	=2	=2	=2	=2
0r	.	0G	Fe-	1B	-stum	0r	.
.	.	.	.	1B	nunc	.	.
=3	=3	=3	=3	=3	=3	=3	=3
0C	Fe-	1E	-stum	1.e	ce-	0r	.
.	.	1E	nunc	.	.	.	.
.	.	.	.	4d	.	.	.
.	.	.	.	4c	.	.	.
=4	=4	=4	=4	=4	=4	=4	=4
1AA	-stum	1.A	ce-	1.c	.	0r	.
1AA	nunc	.	.	.	.	.	.
.	.	4G	.	4B	.	.	.
.	.	4F	.	4A	.	.	.
=5	=5	=5	=5	=5	=5	=5	=5
1.D	ce-	1.F	.	1A	.	0r	.
.	.	.	.	[1d	.	.	.
4C	.	4E	.	.	.	.	.
4BB	.	4D	.	.	.	.	.
=6	=6	=6	=6	=6	=6	=6	=6
2BB	.	2D	.	2d]	.	0r	.
4AA	.	1G	.	4c	.	.	.
4GG	.	.	.	4B	.	.	.
2AA	.	.	.	2c	.	.	.
2AA	-le-	2F#i	.	2c	-le-	.	.
=7	=7	=7	=7	=7	=7	=7	=7
1GG	-bre,	2.G	.	0B	-bre,	0g	Fe-
.	.	4A	.	.	.	.	.
1G	ce-	4B	.	.	.	.	.
.	.	4c	.	.	.	.	.
.	.	[2d	.	.	.	.	.
=8	=8	=8	=8	=8	=8	=8	=8
1A	.	2d]	.	0r	.	0e	nunc
.	.	4c#i	.	.	.	.	.
.	.	4B	.	.	.	.	.
1A	-le-	2c#i	.	.	.	.	.
.	.	2c#i	-le-	.	.	.	.
=9	=9	=9	=9	=9	=9	=9	=9
0D	-bre,	1d	-bre,	2r	.	0f	.
.	.	.	.	2A	ce-	.	.
.	.	2r	.	4F	.	.	.
.	.	.	.	4G	.	.	.
.	.	2D	nunc	4A	.	.	.
.	.	.	.	4B	.	.	.
=10	=10	=10	=10	=10	=10	=10	=10
1r	.	2.C	ce-	1c	.	0e	.
.	.	4D	.	.	.	.	.
1C	ce-	4E	.	2G	.	.	.
.	.	4F	.	.	.	.	.
.	.	[2G	.	2c	.	.	.
=11	=11	=11	=11	=11	=11	=11	=11
1D	.	2G]	.	2B	.	0d	ce-
.	.	4F#i	.	4A	.	.	.
.	.	4E	.	4G	.	.	.
1D	-le-	2F#i	.	1A	-le-	.	.
.	.	2F#i	-le-	.	.	.	.
=12	=12	=12	=12	=12	=12	=12	=12
0GG	-bre	1G	-bre	1B	-bre	0g	-le-
.	.	2r	.	2r	.	.	.
.	.	2d	ma-	2B	ma-	.	.
=13	=13	=13	=13	=13	=13	=13	=13
1r	.	1e	-gna-	2G	-gna-	0g	-bre
.	.	.	.	1c	.	.	.
1G	ma-	1d	.	.	.	.	.
.	.	.	.	2B	.	.	.
=14	=14	=14	=14	=14	=14	=14	=14
1A	.	1c	-que,	2c	.	0r	.
.	.	.	.	1e	.	.	.
1G	-gna-	1B	.	.	.	.	.
.	.	.	.	2d	.	.	.
=15	=15	=15	=15	=15	=15	=15	=15
1F	.	1A	.	2.c	.	1r	.
.	.	.	.	4d	.	.	.
1E	.	1r	.	2e	.	1g	ma-
.	.	.	.	2f	.	.	.
=16	=16	=16	=16	=16	=16	=16	=16
2D	.	1r	.	1d	.	1a	.
2F	.	.	.	.	.	.	.
1E	.	1G	ma-	1c	.	1g	-gna-
=17	=17	=17	=17	=17	=17	=17	=17
0D	-que	[0A	-gna-	0d	-que	0f	-que
=18	=18	=18	=18	=18	=18	=18	=18
1AA	.	1A]	.	0c	.	0e	.
2.C	.	[1G	.	.	.	.	.
4BB	.	.	.	.	.	.	.
=19	=19	=19	=19	=19	=19	=19	=19
4GG	.	1G]	.	1B	gau-	0d	.
4AA	.	.	.	.	.	.	.
4BB	.	.	.	.	.	.	.
4C	.	.	.	.	.	.	.
1D	.	1F	-que	2A	.	.	.
.	.	.	.	2d	.	.	.
=20	=20	=20	=20	=20	=20	=20	=20
1C	.	1E	.	2e	.	0g	.
.	.	.	.	2.c	.	.	.
1GG	.	2D	.	.	.	.	.
.	.	.	.	4B	.	.	.
.	.	2d	gau-	2B	.	.	.
=21	=21	=21	=21	=21	=21	=21	=21
2r	.	2e	-di-	2c	.	0g	gau-
2GG	gau-	1d	.	2B	.	.	.
2BB	.	.	.	2d	.	.	.
2C	.	4c	.	2e	.	.	.
.	.	4B	.	.	.	.	.
=22	=22	=22	=22	=22	=22	=22	=22
2D	.	1A	-a,	1d	-di-	1f	-di-
2D	-di-	.	.	.	.	.	.
[1E	-a,	2r	.	1B	-a,	1g	.
.	.	2G	gau-	.	.	.	.
=23	=23	=23	=23	=23	=23	=23	=23
1E]	.	2B	.	2r	.	0g	-a
.	.	2c	.	2G	gau-	.	.
2r	.	2d	.	2B	.	.	.
2C	gau-	[2e	.	2c	.	.	.
=24	=24	=24	=24	=24	=24	=24	=24
2E	.	2e]	.	2B	-di-	0r	.
2F	.	4d	.	2A	-a,	.	.
.	.	4c	.	.	.	.	.
2G	.	2B	.	2r	.	.	.
[2A	.	2c	.	2A	gau-	.	.
=25	=25	=25	=25	=25	=25	=25	=25
2A]	.	2A	.	2c	.	0r	.
4G	.	1d	-di-	2d	.	.	.
4F	.	.	.	.	.	.	.
2E	.	.	.	1e	.	.	.
2E	-di-	2c#i	.	.	.	.	.
=26	=26	=26	=26	=26	=26	=26	=26
1D	-a	1d	-a	4f	.	1r	.
.	.	.	.	4e	.	.	.
.	.	.	.	4d	.	.	.
.	.	.	.	4c	.	.	.
1D	com-	[1A	com-	2d	.	1f	com-
.	.	.	.	2d	-di-	.	.
=27	=27	=27	=27	=27	=27	=27	=27
0F	-pel-	1A]	.	1c	-a	0a	-pel-
.	.	[1c	-pel-	1f	com-	.	.
=28	=28	=28	=28	=28	=28	=28	=28
1C	.	1c]	.	0e	-pel-	0g	.
1E	.	1B	.	.	.	.	.
=29	=29	=29	=29	=29	=29	=29	=29
1F	.	1A	.	1c	-lunt,	1a	-lunt
2E	.	2G	.	2r	.	1b	.
2D	.	2B	.	2d	[com-	.	.
=30	=30	=30	=30	=30	=30	=30	=30
2.C	.	2A	.	1e	-pel-	0cc	.
.	.	1G	.	.	.	.	.
4BB	.	.	.	.	.	.	.
1AA	.	.	.	2.c	.	.	.
.	.	2F	.	.	.	.	.
.	.	.	.	4d	.	.	.
=31	=31	=31	=31	=31	=31	=31	=31
1GG	-lunt-	2.G	-lunt	2e	.	0b	.
.	.	.	.	2d	-lunt,]	.	.
.	.	4A	.	.	.	.	.
1G	.	4B	.	2r	.	.	.
.	.	4c	.	.	.	.	.
.	.	[2d	a-	2d	com-	.	.
=32	=32	=32	=32	=32	=32	=32	=32
0F	-a-	2d]	.	2f	-pel-	0a	a-
.	.	2c	.	2f	-lunt	.	.
.	.	2A	.	2.c	a-	.	.
.	.	[2c	-ni-	.	.	.	.
.	.	.	.	4d	.	.	.
=33	=33	=33	=33	=33	=33	=33	=33
0E	-ni-	2c]	.	2e	.	0g	-ni-
.	.	4B	.	2e	-ni-	.	.
.	.	4A	.	.	.	.	.
.	.	2B	.	1e	-mos,	.	.
.	.	2c	.	.	.	.	.
=34	=34	=34	=34	=34	=34	=34	=34
1D	-mos,	1F	-mos,	2r	.	0a	.
.	.	.	.	1f	a-	.	.
2r	.	2r	.	.	.	.	.
[2D	a-	2A	a-	2d	.	.	.
=35	=35	=35	=35	=35	=35	=35	=35
4D]	.	1d	.	2f	.	0a	-mos
4E	.	.	.	.	.	.	.
4F	.	.	.	2f	-ni-	.	.
4G	.	.	.	.	.	.	.
1A	.	1c	.	1e	-mos	.	.
=36	=36	=36	=36	=36	=36	=36	=36
2F	.	2A	.	0r	.	0r	.
2G	.	1d	.	.	.	.	.
1E	-ni-	.	.	.	.	.	.
.	.	2c#i	-ni-	.	.	.	.
=37	=37	=37	=37	=37	=37	=37	=37
1D	-mos,	1d	-mos,	1r	.	1r	.
[1F	car-	[1c	car-	[1f	car-	[1a	car-
=38	=38	=38	=38	=38	=38	=38	=38
1F]	.	1c]	.	1f]	.	1a]	.
1C	-mi-	1c	-mi-	1e	-mi-	1g	-mi-
=39	=39	=39	=39	=39	=39	=39	=39
1D	-na	0A	-na	1d	-na	1f	-na
1AA	.	.	.	1c	.	1e	.
=40	=40	=40	=40	=40	=40	=40	=40
1D	pro-	2r	.	0d	pro-	0f	pro-
.	.	1A	pro-	.	.	.	.
1F	.	.	.	.	.	.	.
.	.	2A	-me	.	.	.	.
=41	=41	=41	=41	=41	=41	=41	=41
1E	.	1B	re,	0e	.	0g	.
1C	.	2.c	.	.	.	.	.
.	.	4B	.	.	.	.	.
=42	=42	=42	=42	=42	=42	=42	=42
1D	.	4A	.	1d	.	0f	.
.	.	4G	.	.	.	.	.
.	.	1A	.	.	.	.	.
1D	-me-	.	.	1d	-me-	.	.
.	.	4G	.	.	.	.	.
.	.	4F	.	.	.	.	.
=43	=43	=43	=43	=43	=43	=43	=43
[0C	-re,	2E	.	1G	-re,	0g	-me-
.	.	2C	.	.	.	.	.
.	.	2.E	cum	1r	.	.	.
.	.	4F	.	.	.	.	.
=44	=44	=44	=44	=44	=44	=44	=44
1C]	.	2.G	Chri-	1c	cum	0g	-re,
.	.	8AL	.	.	.	.	.
.	.	8BJ	.	.	.	.	.
2r	.	2.c	.	1e	Chri-	.	.
2C	cum	.	.	.	.	.	.
.	.	4B	.	.	.	.	.
=45	=45	=45	=45	=45	=45	=45	=45
2D	Chri-	2A	.	2f	.	0r	.
2E	.	2G	.	1g	.	.	.
1D	.	1A	.	.	.	.	.
.	.	.	.	2f#i	.	.	.
=46	=46	=46	=46	=46	=46	=46	=46
0G	-stus	2G	.	1g	-stus,	1r	.
.	.	2.d	.	.	.	.	.
.	.	.	.	2r	.	1g	cum
.	.	4B	.	.	.	.	.
.	.	2e	.	2G	cum	.	.
=47	=47	=47	=47	=47	=47	=47	=47
2r	.	1d	-stus	4G	Chri-	0b	Chri-
.	.	.	.	4A	.	.	.
1G	so-	.	.	4B	.	.	.
.	.	.	.	4c	.	.	.
.	.	1r	.	2d	.	.	.
2E	.	.	.	[2e	.	.	.
=48	=48	=48	=48	=48	=48	=48	=48
1A	-li-	1r	.	2e]	.	1cc	-stus
.	.	.	.	4d	.	.	.
.	.	.	.	4c	.	.	.
1G	-um,	2r	.	1B	-stus	[1dd	so-
.	.	[2d	so-	.	.	.	.
=49	=49	=49	=49	=49	=49	=49	=49
2r	.	2d]	.	2r	.	1dd]	.
2G	so-	2B	.	2d	so-	.	.
2E	.	2e	.	2g	.	1cc	-li-
2A	-li-	2e	-li-	2c	-li-	.	.
=50	=50	=50	=50	=50	=50	=50	=50
0D	-um,	1d	-um	0f	-um	1dd	.
.	.	2r	.	.	.	1dd	-um
.	.	2A	scan-	.	.	.	.
=51	=51	=51	=51	=51	=51	=51	=51
2r	.	2B	.	2r	.	0dd	scan-
1D	scan-	2A	-dit,	1f	scan-	.	.
.	.	2r	.	.	.	.	.
2BB	.	[2G	scan-	2d	.	.	.
=52	=52	=52	=52	=52	=52	=52	=52
1E	.	2G]	.	2.g	.	0ee	.
.	.	2E	.	.	.	.	.
.	.	.	.	4f	.	.	.
1AA	.	1A	.	4e	.	.	.
.	.	.	.	4d	.	.	.
.	.	.	.	2c	.	.	.
=53	=53	=53	=53	=53	=53	=53	=53
0BB	-dit	1D	-dit,	2B	.	0dd	.
.	.	.	.	1A	.	.	.
.	.	2r	.	.	.	.	.
.	.	2D	scan-	2G#i	.	.	.
=54	=54	=54	=54	=54	=54	=54	=54
0AA	.	1E	.	4A	.	0cc	-dit
.	.	.	.	4B	.	.	.
.	.	.	.	4c	.	.	.
.	.	.	.	4d	.	.	.
.	.	1C	-dit	4e	.	.	.
.	.	.	.	4f	.	.	.
.	.	.	.	[2e	.	.	.
=55	=55	=55	=55	=55	=55	=55	=55
1GG	.	1G	.	2e]	.	0b	.
.	.	.	.	4d	.	.	.
.	.	.	.	4c	.	.	.
2r	.	2r	.	1d	.	.	.
2GG	ad	2G	ad	.	.	.	.
=56	=56	=56	=56	=56	=56	=56	=56
2.AA	ar-	2E	ar-	2.c	.	0cc	.
.	.	2A	.	.	.	.	.
4BB	.	.	.	4d	.	.	.
1C	.	2G	.	1e	-dit	.	.
.	.	2E	.	.	.	.	.
=57	=57	=57	=57	=57	=57	=57	=57
2.FF	.	2F	.	2c	.	0a	ad
.	.	2F	-du-	2A	ad	.	.
4GG	.	.	.	.	.	.	.
2.AA	.	1E	-um,	2.c	ar-	.	.
4BB	.	.	.	4d	.	.	.
=58	=58	=58	=58	=58	=58	=58	=58
2.C	.	2r	.	2e	.	0g	.
.	.	2E	ad	2c	.	.	.
4D	.	.	.	.	.	.	.
2.E	.	2.G	ar-	2B	.	.	.
.	.	.	.	[2e	.	.	.
4F	.	4A	-du-	.	.	.	.
=59	=59	=59	=59	=59	=59	=59	=59
2.G	.	1B	-um,	4e]	.	0g	ar-
.	.	.	.	4d	.	.	.
.	.	.	.	1d	.	.	.
4F	.	.	.	.	.	.	.
1E	-du-	2r	.	.	.	.	.
.	.	2G	[ad	2c#i	-du-	.	.
=60	=60	=60	=60	=60	=60	=60	=60
1D	-um,	2A	ar-	1d	-um,	1f	-du-
.	.	2F	.	.	.	.	.
1C	.	2c	.	1e	.	1g	.
.	.	2c	-du-	.	.	.	.
=61	=61	=61	=61	=61	=61	=61	=61
2r	.	1B	-um,]	1d	.	0g	-um,
2G	ad	.	.	.	.	.	.
4G	ar-	2r	.	2r	.	.	.
4F	.	.	.	.	.	.	.
4E	.	2B	[ad	2G	ad	.	.
4D	.	.	.	.	.	.	.
=62	=62	=62	=62	=62	=62	=62	=62
2C	.	2A	ar-	2A	ar-	0r	.
2BB	.	1G	.	2B	.	.	.
2AA	.	.	.	2c	.	.	.
2AA	-du-	2F#i	-du-	2c	-du-	.	.
=63	=63	=63	=63	=63	=63	=63	=63
1GG	-um,	1G	-um,]	2.B	.	1r	.
.	.	.	.	4c	.	.	.
2.G	cae-	2r	.	1d	.	1g	cae-
.	.	2B	cae-	.	.	.	.
4F	.	.	.	.	.	.	.
=64	=64	=64	=64	=64	=64	=64	=64
2.E	-lo-	2B	-lo-	1e	-um,	0g	-lo-
.	.	2B	-rum	.	.	.	.
4D	.	.	.	.	.	.	.
1C	.	2.c	pi-	2r	.	.	.
.	.	.	.	2e	cae-	.	.
.	.	4B	.	.	.	.	.
=65	=65	=65	=65	=65	=65	=65	=65
2.F	.	2.A	.	2d	.	0f	-rum
.	.	.	.	1c	.	.	.
4E	.	4G	.	.	.	.	.
1D	.	1F	.	.	.	.	.
.	.	.	.	2B	.	.	.
=66	=66	=66	=66	=66	=66	=66	=66
2.C	-rum	1G	.	1c	-lo-	0e	.
4BB	.	.	.	.	.	.	.
1AA	.	[1A	-us	1c	-rum	.	.
=67	=67	=67	=67	=67	=67	=67	=67
0D	pi-	1A]	.	1d	.	0f	.
.	.	1F	.	1A	pi-	.	.
=68	=68	=68	=68	=68	=68	=68	=68
[0GG	-us	1G	.	1B	-us	0d	pi-
.	.	2r	.	2r	.	.	.
.	.	[2G	ar-	[2B	ar-	.	.
=69	=69	=69	=69	=69	=69	=69	=69
1GG]	.	4G]	.	4B]	.	0g	-us
.	.	4A	.	4c	.	.	.
.	.	2B	.	4d	.	.	.
.	.	.	.	4B	.	.	.
[1C	ar-	2G	.	4c	.	.	.
.	.	.	.	4d	.	.	.
.	.	[2c	.	[2e	.	.	.
=70	=70	=70	=70	=70	=70	=70	=70
2C]	.	2c]	.	2e]	.	1r	.
2D	.	4B	.	1d	.	.	.
.	.	4A	.	.	.	.	.
1E	-bi-	1G	.	.	.	1g	ar-
.	.	.	.	2c#i	-bi-	.	.
=71	=71	=71	=71	=71	=71	=71	=71
1D	-ter.	2A	.	1d	-ter,	1f	-bi-
.	.	2A	-bi-	.	.	.	.
2r	.	1G	-ter.	2r	.	1g	.
[2G	Con-	.	.	2d	ar-	.	.
=72	=72	=72	=72	=72	=72	=72	=72
2G]	.	2r	.	2B	.	0g	-ter.
2.E	-scen-	2.G	Con-	1e	.	.	.
4F	.	4A	.	.	.	.	.
2G	.	2B	-scen-	2d	-bi-	.	.
=73	=73	=73	=73	=73	=73	=73	=73
2C	-dit,	2c	.	0e	-ter.	2r	.
1E	[con-	2B	.	.	.	1g	Con-
.	.	2G	.	.	.	.	.
[2C	-scen-	[2c	.	.	.	[2e	-scen-
=74	=74	=74	=74	=74	=74	=74	=74
4C]	.	4c]	.	0r	.	4e]	.
4D	.	4B	.	.	.	4f	.
2E	.	2G	.	.	.	2g	.
2AA	-dit,]	1A	.	.	.	2c	.
[2D	con-	.	.	.	.	[2f	.
=75	=75	=75	=75	=75	=75	=75	=75
2D]	.	2A	.	0d	Con-	4f]	.
.	.	.	.	.	.	4d	.
2.BB	-scen-	2.D	.	.	.	2.dd	.
4C	.	4E	.	.	.	4cc	.
2D	.	2F	.	.	.	2a	.
=76	=76	=76	=76	=76	=76	=76	=76
1GG	-dit,	1G	-dit	0B	-scen-	2b	.
.	.	.	.	.	.	2.g	.
2r	.	2r	.	.	.	.	.
.	.	.	.	.	.	4f	.
2GG	con-	[2G	iu-	.	.	2d	.
=77	=77	=77	=77	=77	=77	=77	=77
2C	-scen-	2G]	.	0c	-dit	1e	-dit
2AA	.	2A	.	.	.	.	.
2.C	.	2E	.	.	.	2.e	iu-
.	.	2A	.	.	.	.	.
4D	.	.	.	.	.	4f	.
=78	=78	=78	=78	=78	=78	=78	=78
2E	.	2G	.	0B	.	2g	.
2D	-dit	2F	.	.	.	1a	.
2G	iu-	1E	-bi-	.	.	.	.
2G	-bi-	.	.	.	.	2g	-bi-
=79	=79	=79	=79	=79	=79	=79	=79
1D	-lans,	1F	-lans,	0A	iu-	1a	-lans,
2r	.	2r	.	.	.	2r	.
[2D	iu-	[2F	iu-	.	.	[2a	iu-
=80	=80	=80	=80	=80	=80	=80	=80
2D]	.	2F]	.	0d	-bi-	2a]	.
2.BB	-bi-	2.D	-bi-	.	.	1b	.
4C	.	4E	.	.	.	.	.
2D	.	2F	.	.	.	2a	-bi-
=81	=81	=81	=81	=81	=81	=81	=81
1GG	-lans	1G	-lans	0d	-lans	1b	-lans
2r	.	2r	.	.	.	2r	.
[2G	lae-	2d	lae-	.	.	[2b	lae-
=82	=82	=82	=82	=82	=82	=82	=82
2G]	.	1e	.	0r	.	2b]	.
2E	.	.	.	.	.	2g	.
2F	.	1d	-tus	.	.	2a	.
2G	.	.	.	.	.	2b	.
=83	=83	=83	=83	=83	=83	=83	=83
1C	-tus,	1c	ad	1r	.	1e	-tus,
2r	.	[1B	.	1d	lae-	2r	.
[2G	lae-	.	.	.	.	[2b	lae-
=84	=84	=84	=84	=84	=84	=84	=84
2G]	.	2B]	.	1e	.	2b]	.
2E	.	2c	ae-	.	.	2g	.
2F	.	2A	.	1d	-tus	2a	.
2G	.	2G	.	.	.	2b	.
=85	=85	=85	=85	=85	=85	=85	=85
0C	-tus	2A	.	0c	ad	2.e	-tus
.	.	2G	.	.	.	.	.
.	.	.	.	.	.	4f	.
.	.	2.E	-the-	.	.	4g	.
.	.	.	.	.	.	4a	.
.	.	.	.	.	.	[2g	.
.	.	4F	.	.	.	.	.
=86	=86	=86	=86	=86	=86	=86	=86
0GG	.	1G	-ra,	0B	.	2g]	.
.	.	.	.	.	.	4f	.
.	.	.	.	.	.	4e	.
.	.	2r	.	.	.	1d	.
.	.	2G	ad	.	.	.	.
=87	=87	=87	=87	=87	=87	=87	=87
1AA	.	2E	.	0A	.	2c	.
.	.	2E	ae-	.	.	2.cc	ad
2r	.	2.F	-the-	.	.	.	.
.	.	.	.	.	.	4b	.
2A	ad	.	.	.	.	4a	.
.	.	4G	.	.	.	4g	.
=88	=88	=88	=88	=88	=88	=88	=88
2.D	ae-	1A	-ra,	0d	.	2.f	ae-
4E	.	.	.	.	.	4g	.
2F	.	1r	.	.	.	2a	.
[2G	.	.	.	.	.	[2b-i	-the-
=89	=89	=89	=89	=89	=89	=89	=89
2G]	.	1r	.	0d	ae-	2b-]	.
2F	.	.	.	.	.	1a	.
1B-i	.	2r	.	.	.	.	.
.	.	2d	[ad	.	.	2g	.
=90	=90	=90	=90	=90	=90	=90	=90
1A	-the-	2e	ae-	1c	-the-	1a	-ra,
.	.	2e	-the-	.	.	.	.
1D	-ra,	2d	-ra,]	1d	.	2r	.
.	.	2A	[ad	.	.	[2a	ae-
=91	=91	=91	=91	=91	=91	=91	=91
1r	.	2B	ae-	0d	-ra,	2a]	.
.	.	2B	-the-	.	.	2g	.
1D	ad	1A	-ra,]	.	.	2.f	.
.	.	.	.	.	.	8eL	.
.	.	.	.	.	.	8dJ	.
=92	=92	=92	=92	=92	=92	=92	=92
2.AA	ae-	2r	.	0r	.	2.c	.
.	.	2A	ad	.	.	.	.
4BB	.	.	.	.	.	4d	.
2C	.	2G	.	.	.	2e	.
[2D	.	4F	ae-	.	.	[2f	.
.	.	4G	.	.	.	.	.
=93	=93	=93	=93	=93	=93	=93	=93
2D]	.	4A	-the-	0r	.	2f]	.
.	.	4B	.	.	.	.	.
2C	.	2.c	.	.	.	1e	-the-
1F	.	.	.	.	.	.	.
.	.	4B	.	.	.	.	.
.	.	[2A	.	.	.	2d	.
=94	=94	=94	=94	=94	=94	=94	=94
1E	-the-	2A]	.	1r	.	1e	-ra,
.	.	2G#i	.	.	.	.	.
1AA	-ra,	[1A	-ra,	1c	san-	2r	.
.	.	.	.	.	.	2e	san-
=95	=95	=95	=95	=95	=95	=95	=95
2.D	san-	1A]	.	0d	-cto-	2.f	-cto-
4E	.	.	.	.	.	4g	.
4F	.	1r	.	.	.	4a	.
4G	.	.	.	.	.	4b-i	.
[2F	-cto-	.	.	.	.	[2a	.
=96	=96	=96	=96	=96	=96	=96	=96
2F]	.	1r	.	0c	.	2a]	.
4E	.	.	.	.	.	4g	.
4D	.	.	.	.	.	4f	.
1E	.	2r	.	.	.	1g	.
.	.	2G	san-	.	.	.	.
=97	=97	=97	=97	=97	=97	=97	=97
1D	-rum,	1A	-cto-	1d	-rum	1f	.
1G	san-	1B	.	1e	.	1g	.
=98	=98	=98	=98	=98	=98	=98	=98
2F	-cto-	2c	.	0f	.	0a	.
2.D	.	2.d	.	.	.	.	.
4E	.	4c	.	.	.	.	.
4F	.	4A	.	.	.	.	.
4D	.	4d	.	.	.	.	.
=99	=99	=99	=99	=99	=99	=99	=99
2E	.	2B	.	0e	.	0g	.
2.C	.	2.c	.	.	.	.	.
4D	.	4B	.	.	.	.	.
4E	.	4G	.	.	.	.	.
4C	.	4c	.	.	.	.	.
=100	=100	=100	=100	=100	=100	=100	=100
1D	-rum	1A	-rum	0d	po-	1f	-rum
[1F	po-	2r	.	.	.	[1a	po-
.	.	[2A	po-	.	.	.	.
=101	=101	=101	=101	=101	=101	=101	=101
1F]	.	2A]	.	0c	-pu-	1a]	.
.	.	2F	.	.	.	.	.
1E	-pu-	1G	-pu-	.	.	[1g	-pu-
=102	=102	=102	=102	=102	=102	=102	=102
0D	-lus	1A	.	0d	.	2g]	.
.	.	.	.	.	.	4f#i	.
.	.	.	.	.	.	4e	.
.	.	1A	-lus	.	.	1f#i	.
=103	=103	=103	=103	=103	=103	=103	=103
1r	.	1G	prae-	0d	-lus	2g	-lus
.	.	.	.	.	.	2.b	prae-
2r	.	2.B	.	.	.	.	.
.	.	.	.	.	.	4cc	.
[2G	prae-	.	.	.	.	2dd	.
.	.	4c	.	.	.	.	.
=104	=104	=104	=104	=104	=104	=104	=104
2G]	.	4d	.	0r	.	2b	.
.	.	4B	.	.	.	.	.
2E	.	1e	.	.	.	1cc	-di-
2F	.	.	.	.	.	.	.
2F	-di-	2d	-di-	.	.	4b	.
.	.	.	.	.	.	4a	.
=105	=105	=105	=105	=105	=105	=105	=105
1E	-cat,	1e	-cat,	1r	.	0g	-cat
2r	.	2.E	prae-	[1e	prae-	.	.
[2C	prae-	.	.	.	.	.	.
.	.	4F	.	.	.	.	.
=106	=106	=106	=106	=106	=106	=106	=106
2C]	.	4G	.	1e]	.	1r	.
.	.	4E	.	.	.	.	.
2AA	.	1A	.	.	.	.	.
2BB	.	.	.	1d	-di-	2r	.
2BB	-di-	2G#i	-di-	.	.	2b	in-
=107	=107	=107	=107	=107	=107	=107	=107
1AA	-cat	2A	-cat,	1c	-cat	2cc	.
.	.	2F	prae-	.	.	1a	-cli-
1r	.	1G	.	1B	.	.	.
.	.	.	.	.	.	2g	.
=108	=108	=108	=108	=108	=108	=108	=108
1r	.	2.F	-di-	0c	in-	1a	-tum,
.	.	4G	.	.	.	.	.
1AA	in-	1A	-cat	.	.	2r	.
.	.	.	.	.	.	2e	in-
=109	=109	=109	=109	=109	=109	=109	=109
1.D	.	2r	.	0d	.	2.f	-cli-
.	.	2A	in-	.	.	.	.
.	.	.	.	.	.	4g	.
.	.	2F	.	.	.	2a	.
2BB	.	2G	.	.	.	2b	.
=110	=110	=110	=110	=110	=110	=110	=110
2.AA	.	2.A	.	0c	.	2.cc	.
4BB	.	8GL	.	.	.	8bL	.
.	.	8FJ	.	.	.	8aJ	.
2C	.	2E	.	.	.	2g	.
2AA	.	2C	.	.	.	2a	.
=111	=111	=111	=111	=111	=111	=111	=111
1GG	-cli-	2.G	-cli-	0d	-cli-	2b	.
.	.	.	.	.	.	1g	.
.	.	4B	.	.	.	.	.
1D	.	1A	.	.	.	.	.
.	.	.	.	.	.	2f#i	.
=112	=112	=112	=112	=112	=112	=112	=112
1GG	-tum,	0G	-tum,	0d	-tum,	1g	-tum,
2r	.	.	.	.	.	2r	.
2G	con-	.	.	.	.	2b	con-
=113	=113	=113	=113	=113	=113	=113	=113
2E	-ci-	2r	.	0r	.	2g	-ci-
2F	.	2d	con-	.	.	2a	.
2G	.	2B	-ci-	.	.	2b	.
[2A	.	[2c	.	.	.	[2e	-nit,
=114	=114	=114	=114	=114	=114	=114	=114
2A]	.	4c]	.	1r	.	4e]	.
.	.	4d	.	.	.	4f	.
2G	.	2e	.	.	.	2g	.
1F	.	2.A	-nit	1c	con-	1a	.
.	.	4B	.	.	.	.	.
=115	=115	=115	=115	=115	=115	=115	=115
1C	-nit	1c	.	0e	-ci-	1g	.
1E	.	2B	pa-	.	.	2r	.
.	.	2G	.	.	.	2g	con-
=116	=116	=116	=116	=116	=116	=116	=116
1D	pa-	1d	.	1f	-nit	1a	-ci-
1G	.	1B	.	[1g	pa-	1b	-nit
=117	=117	=117	=117	=117	=117	=117	=117
1E	.	1e	.	1g]	.	1b	pa-
1A	-ri-	1c	-ri-	1f	-ri-	1a	-ri-
=118	=118	=118	=118	=118	=118	=118	=118
1G	-ter,	1d	-ter,	1g	.	2.b	-ter
.	.	.	.	.	.	4cc	.
2r	.	2r	.	1g	-ter	4dd	.
.	.	.	.	.	.	4ee	.
2G	an-	2d	pa-	.	.	2dd	.
=119	=119	=119	=119	=119	=119	=119	=119
2E	-ge-	1e	.	0g	an-	2g	an-
2C	-li-	.	.	.	.	1cc	-ge-
2G	-cus	2.d	.	.	.	.	.
2G	cho-	.	.	.	.	2b	-li-
.	.	8cL	-ri-	.	.	.	.
.	.	8BJ	.	.	.	.	.
=120	=120	=120	=120	=120	=120	=120	=120
1F	-rus,	2A	-ter	0a	.	0cc	-cus
.	.	2F	an-	.	.	.	.
2r	.	2.f	-ge-	.	.	.	.
2F	an-	.	.	.	.	.	.
.	.	4f	-li-	.	.	.	.
=121	=121	=121	=121	=121	=121	=121	=121
2.G	-ge-	2d	-cus,	0g	.	0b	.
.	.	2d	an-	.	.	.	.
4G	-li-	.	.	.	.	.	.
2E	-cus,	2.e	-ge-	.	.	.	.
2E	an-	.	.	.	.	.	.
.	.	4e	-li-	.	.	.	.
=122	=122	=122	=122	=122	=122	=122	=122
2.F	-ge-	2c	-cus,	0f	-ge-	1a	.
.	.	2c	[an-	.	.	.	.
4F	-li-	.	.	.	.	.	.
2D	-cus,	2.d	-ge-	.	.	2r	.
2D	an-	.	.	.	.	[2a	cho-
.	.	4d	-li-	.	.	.	.
=123	=123	=123	=123	=123	=123	=123	=123
1E	-ge-	2B	-cus,	0e	.	2a]	.
.	.	2B	an-	.	.	2g#i	.
1AA	-li-	2.c	-ge-	.	.	[1a	-rus,
.	.	4c	-li-	.	.	.	.
=124	=124	=124	=124	=124	=124	=124	=124
1D	-cus,	1A	-cus,]	0f	.	1a]	.
1r	.	2r	.	.	.	2r	.
.	.	2A	[an-	.	.	2cc	an-
=125	=125	=125	=125	=125	=125	=125	=125
2r	.	2.B	-ge-	0d	-li-	2.dd	-ge-
2GG	an-	.	.	.	.	.	.
.	.	4B	-li-	.	.	4dd	-li-
2.BB	-ge-	2G	-cus,]	.	.	2b	-cus,
.	.	2G	an-	.	.	2b	[an-
4BB	-li-	.	.	.	.	.	.
=126	=126	=126	=126	=126	=126	=126	=126
1AA	-cus,	2.A	-ge-	0c	.	2.cc	-ge-
.	.	4A	-li-	.	.	4cc	-li-
2r	.	2F	-cus	.	.	1a	-cus,]
2AA	an-	[2A	cho-	.	.	.	.
=127	=127	=127	=127	=127	=127	=127	=127
1C	-ge-	4A]	.	0c	-cus	1r	.
.	.	4G	.	.	.	.	.
.	.	1G	.	.	.	.	.
1AA	-li-	.	.	.	.	2r	.
.	.	2F#i	.	.	.	2a	an-
=128	=128	=128	=128	=128	=128	=128	=128
1GG	-cus	4G	.	1B	cho-	2.b	-ge-
.	.	4F	.	.	.	.	.
.	.	4E	.	.	.	.	.
.	.	4D	.	.	.	4b	-li-
1C	cho-	1E	.	1c	.	2g	-cus,
.	.	.	.	.	.	2g	[an-
=129	=129	=129	=129	=129	=129	=129	=129
1FF	-rus	1.F	-rus	0c	-rus	2.a	-ge-
.	.	.	.	.	.	4a	-li-
2r	.	.	.	.	.	2f	-cus,]
2F	vi-	2A	vi-	.	.	2f	an-
=130	=130	=130	=130	=130	=130	=130	=130
2.E	-cto-	2B	-cto-	0r	.	2.g	-ge-
.	.	2B	-ris	.	.	.	.
4D	-ris	.	.	.	.	4g	-li-
2C	bo-	1c	bo-	.	.	2e	-cus,
2C	-ni	.	.	.	.	2e	an-
=131	=131	=131	=131	=131	=131	=131	=131
2.D	glo-	1A	-ni	1r	.	2.f	-ge-
4D	-ri-	.	.	.	.	4f	-li-
1GG	-am,	2B	glo-	1d	vi-	2d	-cus
.	.	2B	-ri-	.	.	[2dd	cho-
=132	=132	=132	=132	=132	=132	=132	=132
1r	.	2.G	-am,	0d	-cto-	4dd]	.
.	.	.	.	.	.	4b	.
.	.	.	.	.	.	2b	-rus
.	.	4A	.	.	.	.	.
2r	.	1B	.	.	.	2r	.
2G	vi-	.	.	.	.	2b	vi-
=133	=133	=133	=133	=133	=133	=133	=133
2.A	-cto-	2r	.	0c	-ris	2.cc	-cto-
.	.	2e	vi-	.	.	.	.
4A	-ris	.	.	.	.	4cc	-ris
2F	bo-	2.f	-cto-	.	.	2a	bo-
2F	-ni	.	.	.	.	2a	-ni
.	.	4f	-ris	.	.	.	.
=134	=134	=134	=134	=134	=134	=134	=134
2.G	glo-	2d	bo-	0B	.	2.b	glo-
.	.	2d	-ni	.	.	.	.
4G	-ri-	.	.	.	.	4b	-ri-
1E	-am,	1e	glo-	.	.	1g	-am,
=135	=135	=135	=135	=135	=135	=135	=135
2r	.	2r	.	0c	.	2r	.
2E	vi-	2e	-ri-	.	.	2g	vi-
[1F	-cto-	1A	-am,	.	.	[1a	-cto-
=136	=136	=136	=136	=136	=136	=136	=136
2F]	.	2r	.	0A	bo-	2a]	.
2F	-ris	2c	[vi-	.	.	2a	-ris
1D	bo-	1d	-cto-	.	.	1f	bo-
=137	=137	=137	=137	=137	=137	=137	=137
2D	-ni	2d	-ris	0d	-ni	2f	-ni
1G	glo-	1B	bo-	.	.	1g	glo-
2G	-ri-	2B	-ni	.	.	2g	-ri-
=138	=138	=138	=138	=138	=138	=138	=138
1C	-am,	2c	glo-	1r	.	1e	-am,
.	.	2c	-ri-	.	.	.	.
2D	glo-	2.A	-am,	1d	glo-	2f	glo-
[2F	.	.	.	.	.	[2a	.
.	.	4B	.	.	.	.	.
=139	=139	=139	=139	=139	=139	=139	=139
2F]	.	2c	.	1c	-ri-	2a]	.
2E	.	2G	glo-	.	.	1g	.
1D	-ri-	1A	-ri-	1d	.	.	.
.	.	.	.	.	.	2f#i	-ri-
=140	=140	=140	=140	=140	=140	=140	=140
1GG	-am.	0G	-am.]	0d	-am.	2g	-am.
.	.	.	.	.	.	2d	O-
2r	.	.	.	.	.	2g	-ra-
2GG	O-	.	.	.	.	2g	-mus,
=141	=141	=141	=141	=141	=141	=141	=141
2C	-ra-	0r	.	2r	.	2e	Do-
2C	-mus,	.	.	2G	O-	2e	-mi-
2AA	Do-	.	.	2c	-ra-	1a	-ne,
2AA	-mi-	.	.	2c	-mus,	.	.
=142	=142	=142	=142	=142	=142	=142	=142
1D	-ne,	0r	.	2A	Do-	2r	.
.	.	.	.	2A	-mi-	2a	o-
2r	.	.	.	2d	-ne,	2f	-ra-
2D	[o-	.	.	2A	[o-	2f	-mus,
=143	=143	=143	=143	=143	=143	=143	=143
2AA	-ra-	0r	.	2c	-ra-	2a	Do-
2AA	-mus,	.	.	2c	-mus,	2a	-mi-
2C	Do-	.	.	2G	Do-	1e	-ne,
2C	-mi-	.	.	2A	-mi-	.	.
=144	=144	=144	=144	=144	=144	=144	=144
1GG	-ne,]	0G	O-	0B	-ne,]	2r	.
.	.	.	.	.	.	2d	[o-
2r	.	.	.	.	.	1g	-ra-
2GG	o-	.	.	.	.	.	.
=145	=145	=145	=145	=145	=145	=145	=145
2C	-ra-	0E	-ra-	2r	.	2g	-mus,
2C	-mus,	.	.	2G	o-	2e	Do-
2AA	Do-	.	.	2c	-ra-	2e	-mi-
2AA	-mi-	.	.	2c	-mus,	[2a	-ne,]
=146	=146	=146	=146	=146	=146	=146	=146
1D	-ne,	0F	-mus,	2A	Do-	2a]	.
.	.	.	.	2A	-mi-	2dd	o-
2r	.	.	.	1d	-ne,	2a	-ra-
2D	[o-	.	.	.	.	2a	-mus,
=147	=147	=147	=147	=147	=147	=147	=147
2AA	-ra-	0E	.	2c	.	2cc	Do-
2AA	-mus,	.	.	1e	Do-	2cc	-mi-
2C	Do-	.	.	.	.	[1g	-ne,
2C	-mi-	.	.	4d	-mi-	.	.
.	.	.	.	4c	.	.	.
=148	=148	=148	=148	=148	=148	=148	=148
1GG	-ne,]	0D	Do-	2B	-ne,	1g]	.
.	.	.	.	2d	[Do-	.	.
2r	.	.	.	2A	-mi-	2r	.
2D	Do-	.	.	2A	-ne,	2a	[o-
=149	=149	=149	=149	=149	=149	=149	=149
2.C	.	0G	-mi-	2c	Do-	2e	-ra-
.	.	.	.	2c	-mi-	2e	-mus,
4D	.	.	.	.	.	.	.
4E	.	.	.	1G	-ne,]	2g	Do-
4D	.	.	.	.	.	.	.
4E	.	.	.	.	.	2g	-mi-
4F	.	.	.	.	.	.	.
=150	=150	=150	=150	=150	=150	=150	=150
2G	.	0G	-ne,	2r	.	1d	-ne,]
2GG	-mi-	.	.	2g	o-	.	.
1GG	-ne,	.	.	2d	-ra-	2r	.
.	.	.	.	2d	-mus,	2dd	o-
=151	=151	=151	=151	=151	=151	=151	=151
2r	.	0r	.	2f	Do-	2a	-ra-
2D	o-	.	.	2f	-mi-	2a	-mus,
2AA	-ra-	.	.	2.c	-ne,	2cc	Do-
2AA	-mus,	.	.	.	.	2cc	-mi-
.	.	.	.	4d	.	.	.
=152	=152	=152	=152	=152	=152	=152	=152
2C	Do-	1r	.	1e	.	2.g	-ne,
2C	-mi-	.	.	.	.	.	.
.	.	.	.	.	.	4a	.
2GG	-ne,	1G	con-	2d	.	4b	.
.	.	.	.	.	.	4cc	.
2BB	.	.	.	2D	con-	4dd	.
.	.	.	.	.	.	4b	.
=153	=153	=153	=153	=153	=153	=153	=153
2.AA	con-	1A	.	2E	.	2cc	.
.	.	.	.	2F	.	4c	con-
4BB	.	.	.	.	.	4d	.
4C	.	1G	-di-	1E	-di-	4e	.
4D	.	.	.	.	.	4f	.
4E	.	.	.	.	.	4g	.
4C	.	.	.	.	.	4e	.
=154	=154	=154	=154	=154	=154	=154	=154
1D	.	0F	-tor	1A	-tor,	4f	.
.	.	.	.	.	.	4e	.
.	.	.	.	.	.	4d	.
.	.	.	.	.	.	4c	.
1D	-di-	.	.	1r	.	1d	-di-
=155	=155	=155	=155	=155	=155	=155	=155
1AA	-tor	0E	.	2.A	con-	2.c	-tor,
.	.	.	.	4B	.	4d	.
1r	.	.	.	4c	.	4e	.
.	.	.	.	4d	.	4f	.
.	.	.	.	4e	.	4g	.
.	.	.	.	4c	.	4e	.
=156	=156	=156	=156	=156	=156	=156	=156
1r	.	0D	.	2d	-di-	2f	.
.	.	.	.	2A	-tor,	4d	con-
.	.	.	.	.	.	4e	.
2r	.	.	.	4d	con-	4f	.
.	.	.	.	4e	.	4g	.
2D	in-	.	.	4f	.	4a	.
.	.	.	.	4d	.	4f	.
=157	=157	=157	=157	=157	=157	=157	=157
2.C	.	0G	.	2.e	-di-	2g	.
.	.	.	.	.	.	1cc	-di-
4BB	.	.	.	4d	.	.	.
4C	.	.	.	4e	.	.	.
4D	.	.	.	4f	.	.	.
[2E	-cli-	.	.	[2g	.	2b	.
=158	=158	=158	=158	=158	=158	=158	=158
2E]	.	0G	in-	2g]	.	1b	-tor
4D	.	.	.	4f	.	.	.
4C	.	.	.	4e	.	.	.
2BB	-te,	.	.	2d	-tor	2r	.
2C	.	.	.	2e	in-	2g	in-
=159	=159	=159	=159	=159	=159	=159	=159
2AA	.	1F	-cli-	2c	.	2.a	.
2D	.	.	.	2d	.	.	.
.	.	.	.	.	.	4b	.
2.C	in-	1G	.	2.e	.	2cc	.
.	.	.	.	.	.	2g	.
4BB	.	.	.	4d	.	.	.
=160	=160	=160	=160	=160	=160	=160	=160
4C	.	0G	-te,	2c	.	2e	.
4D	.	.	.	.	.	.	.
1E	.	.	.	2.B	.	1g	.
.	.	.	.	4G	.	.	.
4D	.	.	.	[2B	.	4f	.
4C	.	.	.	.	.	4e	.
=161	=161	=161	=161	=161	=161	=161	=161
2BB	.	0r	.	4B]	.	2d	-cli-
.	.	.	.	4A	.	.	.
2C	.	.	.	1G	.	1e	.
1AA	-cli-	.	.	.	.	.	.
.	.	.	.	2F#i	-cli-	4d	.
.	.	.	.	.	.	4c	.
=162	=162	=162	=162	=162	=162	=162	=162
0GG	-te,	0r	.	1G	-te,	1B	-te,
.	.	.	.	2r	.	2r	.
.	.	.	.	2g	de-	[2b	de-
=163	=163	=163	=163	=163	=163	=163	=163
1r	.	1r	.	2d	-vo-	2b]	.
.	.	.	.	2d	-tos	4a	.
.	.	.	.	.	.	4g	.
1D	de-	1F	de-	2f	fa-	2.a	.
.	.	.	.	2f	-mu-	.	.
.	.	.	.	.	.	4b	.
=164	=164	=164	=164	=164	=164	=164	=164
1AA	-vo-	0A	-vo-	1e	-los,	4cc	-vo-
.	.	.	.	.	.	4b	.
.	.	.	.	.	.	4a	.
.	.	.	.	.	.	4g	.
1AA	-tos	.	.	2r	.	2f	.
.	.	.	.	2A	[de-	[2e	.
=165	=165	=165	=165	=165	=165	=165	=165
1C	fa-	0G	.	2E	-vo-	4e]	.
.	.	.	.	.	.	4f	.
.	.	.	.	2E	-tos	4g	.
.	.	.	.	.	.	4a	.
1BB	-mu-	.	.	1G	fa-	4b	.
.	.	.	.	.	.	4cc	.
.	.	.	.	.	.	4dd	.
.	.	.	.	.	.	4b	.
=166	=166	=166	=166	=166	=166	=166	=166
1AA	-los,	1A	-tos	1F	-mu-	2cc	.
.	.	.	.	.	.	1a	.
1r	.	1B	.	1E	-los,	.	.
.	.	.	.	.	.	2g#i	.
=167	=167	=167	=167	=167	=167	=167	=167
2r	.	0c	.	1A	de-	2a	-tos,
2.AA	fa-	.	.	.	.	2e	de-
.	.	.	.	1E	-vo-	2a	-vo-
4BB	.	.	.	.	.	.	.
4C	.	.	.	.	.	2g	-tos
4D	.	.	.	.	.	.	.
=168	=168	=168	=168	=168	=168	=168	=168
4E	.	0B	.	1E	-tos	2r	.
4F	.	.	.	.	.	.	.
2G	-mu-	.	.	.	.	1g	fa-
1GG	-los,	.	.	1G	fa-	.	.
.	.	.	.	.	.	2g	-mu-
=169	=169	=169	=169	=169	=169	=169	=169
2r	.	0A	fa-	1F	-mu-	1a	-los,
2D	de-	.	.	.	.	.	.
2AA	-vo-	.	.	2E	-los,]	2r	.
2AA	-tos	.	.	[2E	de-	2a	de-
=170	=170	=170	=170	=170	=170	=170	=170
1C	fa-	0G	-mu-	4E]	.	2e	-vo-
.	.	.	.	4F	.	.	.
.	.	.	.	4G	.	2e	-tos
.	.	.	.	4A	.	.	.
1BB	-mu-	.	.	4B	.	1g	fa-
.	.	.	.	4c	.	.	.
.	.	.	.	4d	.	.	.
.	.	.	.	4B	.	.	.
=171	=171	=171	=171	=171	=171	=171	=171
1AA	-los,	0A	.	1c	.	2f	-mu-
.	.	.	.	.	.	2e	-los,
1D	de-	.	.	1F	-vo-	2r	.
.	.	.	.	.	.	2d	de-
=172	=172	=172	=172	=172	=172	=172	=172
1AA	-vo-	0A	-los	1c	-tos	1.e	-vo-
1AA	-tos	.	.	2r	.	.	.
.	.	.	.	[2c	fa-	2e	-tos
=173	=173	=173	=173	=173	=173	=173	=173
1C	fa-	0r	.	4c]	.	1e	fa-
.	.	.	.	4B	.	.	.
.	.	.	.	1A	.	.	.
1BB	-mu-	.	.	.	.	1d	-mu-
.	.	.	.	2G#i	-mu-	.	.
=174	=174	=174	=174	=174	=174	=174	=174
2AA	-los,	1r	.	2.A	-los,	2c	-los
2D	[de-	.	.	.	.	2f	re-
.	.	.	.	4B	.	.	.
1AA	-vo-	[1A	re-	4c	.	2e	.
.	.	.	.	4d	.	.	.
.	.	.	.	[2e	.	[2c	-spi-
=175	=175	=175	=175	=175	=175	=175	=175
2AA	-tos	1A]	.	2e]	.	4c]	.
.	.	.	.	.	.	4d	.
1C	fa-	.	.	2.E	fa-	1e	-ce,
.	.	1G	-spi-	.	.	.	.
.	.	.	.	4F	.	.	.
2BB	-mu-	.	.	2G	-mu-	[2d	.
=176	=176	=176	=176	=176	=176	=176	=176
0AA	-los]	1F	-ce	1A	-los	2d]	.
.	.	.	.	.	.	4c	.
.	.	.	.	.	.	4B	.
.	.	1E	.	2r	.	1c	.
.	.	.	.	2A	re-	.	.
=177	=177	=177	=177	=177	=177	=177	=177
1D	re-	0F	pro-	2F	-spi-	2d	.
.	.	.	.	1f	.	2dd	de-
1D	-spi-	.	.	.	.	2a	-vo-
.	.	.	.	4e	.	2a	-tos
.	.	.	.	4d	.	.	.
=178	=178	=178	=178	=178	=178	=178	=178
1C	-ce,	0G	.	2e	.	1cc	fa-
.	.	.	.	2c	.	.	.
2r	.	.	.	2.d	.	1b	-mu-
2GG	re-	.	.	.	.	.	.
.	.	.	.	4e	.	.	.
=179	=179	=179	=179	=179	=179	=179	=179
2.D	.	0F	.	2.f	-ce,	1a	-los
8CL	.	.	.	8eL	.	.	.
8BBJ	.	.	.	8dJ	.	.	.
1AA	.	.	.	1c	.	2r	.
.	.	.	.	.	.	2a	re-
=180	=180	=180	=180	=180	=180	=180	=180
2GG	.	0G	-te-	2r	.	2b	-spi-
1C	.	.	.	1e	re-	2.g	-ce
.	.	.	.	.	.	4a	.
2BB	-spi-	.	.	2d	-spi-	2b	.
=181	=181	=181	=181	=181	=181	=181	=181
2.C	-ce	0G	-gens,	1c	-ce	2.e	pro-
4D	.	.	.	.	.	4f	.
4E	.	.	.	1B	.	1g	-te-
4F	.	.	.	.	.	.	.
2G	pro-	.	.	.	.	.	.
=182	=182	=182	=182	=182	=182	=182	=182
2F	-te-	0r	.	2c	pro-	2a	.
2D	.	.	.	1d	.	2f	.
1A	.	.	.	.	.	1e	-gens,
.	.	.	.	2c#i	.	.	.
=183	=183	=183	=183	=183	=183	=183	=183
1G	-gens,	1r	.	0d	-te-	2r	.
.	.	.	.	.	.	2g	ne
1r	.	1G	ne	.	.	2.b	nos
.	.	.	.	.	.	4cc	.
=184	=184	=184	=184	=184	=184	=184	=184
2r	.	0B	nos	0d	-gens,	2dd	.
2.G	ne	.	.	.	.	2.b	li-
4F	.	.	.	.	.	4cc	.
2D	nos	.	.	.	.	2dd	.
=185	=185	=185	=185	=185	=185	=185	=185
1E	li-	1c	li-	2r	.	1g	-vor,
.	.	.	.	2g	ne	.	.
2D	-vor	[1d	-vor	2f	nos	2r	.
[2G	.	.	.	[2g	li-	[2b	li-
=186	=186	=186	=186	=186	=186	=186	=186
4G]	.	1d]	.	4g]	.	4b]	.
4F	.	.	.	4a	.	4cc	.
2D	.	.	.	2f	-vor	2dd	-vor
1E	e-	1c	e-	1e	e-	2.g	e-
.	.	.	.	.	.	4a	.
=187	=187	=187	=187	=187	=187	=187	=187
2.BB	.	1d	.	2d	.	1b	.
.	.	.	.	1g	.	.	.
4C	.	.	.	.	.	.	.
1D	.	1d	-dax	.	.	1a	-dax
.	.	.	.	2f#i	.	.	.
=188	=188	=188	=188	=188	=188	=188	=188
1GG	-dax	0d	dae-	2g	-dax,	2r	.
.	.	.	.	1G	e-	2.b	dae-
2r	.	.	.	.	.	.	.
.	.	.	.	.	.	4g	.
2D	dae-	.	.	2F	.	4a	.
.	.	.	.	.	.	4b	.
=189	=189	=189	=189	=189	=189	=189	=189
2.C	-mo-	0e	.	1G	-dax	1cc	-mo-
4D	.	.	.	.	.	.	.
2.E	.	.	.	[1g	dae-	[1b	.
4F	.	.	.	.	.	.	.
=190	=190	=190	=190	=190	=190	=190	=190
1G	.	0d	.	1g]	.	1b]	.
2.D	-nis,	.	.	[1f	-mo-	[1a	.
4E	.	.	.	.	.	.	.
=191	=191	=191	=191	=191	=191	=191	=191
1F	.	0c	-mo-	1f]	.	1a]	.
2.C	.	.	.	[1e	-nis,	1g	.
4D	.	.	.	.	.	.	.
=192	=192	=192	=192	=192	=192	=192	=192
2.E	.	0B	.	1e]	.	0g	-nis,
4F	.	.	.	.	.	.	.
1G	.	.	.	2r	.	.	.
.	.	.	.	2d	dae-	.	.
=193	=193	=193	=193	=193	=193	=193	=193
2r	.	0c	.	2e	.	2r	.
2.F	dae-	.	.	1f	.	1a	dae-
4E	.	.	.	.	.	.	.
2C	.	.	.	2e	.	2g	.
=194	=194	=194	=194	=194	=194	=194	=194
2D	.	0A	-nis	1d	-mo-	2f	.
2D	-mo-	.	.	.	.	2f	-mo-
1AA	-nis,	.	.	1c	.	1e	-nis
=195	=195	=195	=195	=195	=195	=195	=195
2r	.	0G	.	0B	-nis	2r	.
2.E	[dae-	.	.	.	.	2.g	ob-
4D	.	.	.	.	.	4f	.
2BB	.	.	.	.	.	2d	.
=196	=196	=196	=196	=196	=196	=196	=196
2C	.	0G	ob-	2r	.	4e	.
.	.	.	.	.	.	4c	.
2C	-mo-	.	.	1e	ob-	1cc	.
1GG	-nis]	.	.	.	.	.	.
.	.	.	.	[2d	.	2b	.
=197	=197	=197	=197	=197	=197	=197	=197
1D	ob-	1F	-ru-	4d]	.	2.a	.
.	.	.	.	4c	.	.	.
.	.	.	.	2A	.	.	.
.	.	.	.	.	.	8gL	.
.	.	.	.	.	.	8fJ	.
1C	-ru-	1G	.	2c	.	2e	.
.	.	.	.	2c	-ru-	2e	-ru-
=198	=198	=198	=198	=198	=198	=198	=198
1GG	-at	0G	-at	1B	-at	1d	-at
2r	.	.	.	2r	.	2r	.
2G	de-	.	.	2B	de-	[2d	de-
=199	=199	=199	=199	=199	=199	=199	=199
2F	-mer-	0r	.	2A	-mer-	2d]	.
2E	.	.	.	1c	.	2e	.
1D	.	.	.	.	.	1f	.
.	.	.	.	2B	.	.	.
=200	=200	=200	=200	=200	=200	=200	=200
2.C	.	1r	.	2c	.	2.e	.
.	.	.	.	2G	.	.	.
4BB	.	.	.	.	.	4d	.
4C	.	1G	de-	2c	.	4e	.
4D	.	.	.	.	.	4f	.
[2E	.	.	.	2B	-gat,	[2g	.
=201	=201	=201	=201	=201	=201	=201	=201
4E]	.	0G	-mer-	2r	.	4g]	.
4D	.	.	.	.	.	4f	.
4C	.	.	.	2c	[de-	4e	.
4BB	.	.	.	.	.	4d	.
1C	.	.	.	1c	-mer-	1e	.
=202	=202	=202	=202	=202	=202	=202	=202
0D	-gat,	0F	-gat	2A	-gat,]	2d	.
.	.	.	.	2.d	de-	2.f	-mer-
.	.	.	.	4e	.	4g	.
.	.	.	.	4f	.	4a	.
.	.	.	.	4d	.	4f	.
=203	=203	=203	=203	=203	=203	=203	=203
0r	.	0E	.	2e	.	2g	.
.	.	.	.	2c	.	1a	.
.	.	.	.	1B	-mer-	.	.
.	.	.	.	.	.	2g#i	.
=204	=204	=204	=204	=204	=204	=204	=204
1r	.	0F	.	1A	-gat,	0a	-gat,
1D	de-	.	.	1r	.	.	.
=205	=205	=205	=205	=205	=205	=205	=205
1BB	-mer-	0D	vel	1d	[de-	1r	.
[1GG	-gat	.	.	1B	-mer-	1dd	de-
=206	=206	=206	=206	=206	=206	=206	=206
1GG]	.	0G	in	2G	-gat,]	1b	-mer-
.	.	.	.	1g	de-	.	.
[1C	vel	.	.	.	.	1g	-gat
.	.	.	.	[2e	-mer-	.	.
=207	=207	=207	=207	=207	=207	=207	=207
1C]	.	1r	.	2e]	.	1cc	vel
.	.	.	.	2c	-gat	.	.
1GG	in	1G	in-	2d	vel	1b	in
.	.	.	.	2e	in	.	.
=208	=208	=208	=208	=208	=208	=208	=208
1D	in-	1F	-fe-	1f	in-	1a	in-
1GG	-fe-	1G	.	1d	-fe-	1b	-fe-
=209	=209	=209	=209	=209	=209	=209	=209
0C	-ros,	0G	-ros,	1e	-ros,	1cc	-ros,
.	.	.	.	2r	.	2r	.
.	.	.	.	2c	vel	2cc	vel
=210	=210	=210	=210	=210	=210	=210	=210
0r	.	0r	.	2d	.	2b	.
.	.	.	.	1f	in	1a	in
.	.	.	.	4e	.	4g	.
.	.	.	.	4d	.	4f	.
=211	=211	=211	=211	=211	=211	=211	=211
0r	.	0r	.	4c	in-	4e	in-
.	.	.	.	4d	.	4f	.
.	.	.	.	4e	.	4g	.
.	.	.	.	4f	.	4a	.
.	.	.	.	1g	-fe-	4b	.
.	.	.	.	.	.	4cc	.
.	.	.	.	.	.	[2dd	-fe-
=212	=212	=212	=212	=212	=212	=212	=212
0r	.	0r	.	2f	.	2dd]	.
.	.	.	.	2.e	.	2.cc	.
.	.	.	.	4d	.	4b	.
.	.	.	.	4c	.	4a	.
.	.	.	.	4B	.	4g	.
=213	=213	=213	=213	=213	=213	=213	=213
1r	.	0r	.	4A	.	4f	.
.	.	.	.	4G	.	4e	.
.	.	.	.	2B	.	1g	.
2r	.	.	.	1A	.	.	.
2D	vel	.	.	.	.	2f#i	.
=214	=214	=214	=214	=214	=214	=214	=214
2E	in	1r	.	1G	-ros,	1g	-ros,
2.G	in-	.	.	.	.	.	.
.	.	2r	.	2r	.	2r	.
4F	.	.	.	.	.	.	.
2E	.	2G	vel	2c	[vel	2g	vel
=215	=215	=215	=215	=215	=215	=215	=215
2D	.	2A	in	2d	in	2f	in
2AA	.	1c	in-	1e	in-	2.a	in-
2C	.	.	.	.	.	.	.
.	.	.	.	.	.	4e	.
2D	.	4B	.	4d	.	2f	.
.	.	4A	.	4c	.	.	.
=216	=216	=216	=216	=216	=216	=216	=216
2E	.	4G	.	2B	.	2g	.
.	.	4A	.	.	.	.	.
2E	-fe-	4B	.	2G	-fe-	2g	-fe-
.	.	4c	.	.	.	.	.
1D	-ros.	1d	.	2A	-ros,]	1f	-ros.
.	.	.	.	2d	vel	.	.
=217	=217	=217	=217	=217	=217	=217	=217
0r	.	2c	.	2e	in	0r	.
.	.	2.B	.	2.g	in-	.	.
.	.	4A	.	4f	.	.	.
.	.	4G	.	4e	.	.	.
.	.	4F	.	4d	.	.	.
=218	=218	=218	=218	=218	=218	=218	=218
0r	.	4E	.	4c	.	1r	.
.	.	4D	.	4B	.	.	.
.	.	2F	.	1d	.	.	.
.	.	1E	-fe-	.	.	2r	.
.	.	.	.	2c#i	.	2e	Prae-
=219	=219	=219	=219	=219	=219	=219	=219
0D	Prae-	1D	-ros.	2d	.	2f	-sta
.	.	.	.	2d	-fe-	2.a	hoc,
.	.	2r	.	1A	-ros,	.	.
.	.	.	.	.	.	4g	.
.	.	2A	Prae-	.	.	4f	.
.	.	.	.	.	.	4e	.
=220	=220	=220	=220	=220	=220	=220	=220
0BB	-sta	2B	-sta	2r	.	1d	.
.	.	2.d	hoc,	2.B	in	.	.
.	.	.	.	.	.	2r	.
.	.	4c	.	4A	.	.	.
.	.	4B	.	4G	.	2d	prae-
.	.	4A	.	4F	.	.	.
=221	=221	=221	=221	=221	=221	=221	=221
0C	hoc,	1G	.	1E	in-	2.e	-sta
.	.	.	.	.	.	4f	.
.	.	2.E	ge-	1e	-fe-	4g	.
.	.	.	.	.	.	4e	.
.	.	.	.	.	.	[2g	hoc,
.	.	4F	.	.	.	.	.
=222	=222	=222	=222	=222	=222	=222	=222
0BB	.	2G	.	1d	-ros.	2g]	.
.	.	1A	.	.	.	4f	.
.	.	.	.	.	.	4e	.
.	.	.	.	2r	.	1d	.
.	.	2G#i	.	2B	Prae-	.	.
=223	=223	=223	=223	=223	=223	=223	=223
0AA	ge-	2A	.	2c	-sta	1r	.
.	.	2.c	.	2.e	hoc,	.	.
.	.	.	.	.	.	2r	.
.	.	4B	.	4d	.	.	.
.	.	4A	.	4c	.	2e	prae-
.	.	4G	.	4B	.	.	.
=224	=224	=224	=224	=224	=224	=224	=224
0D	-ni-	1F	.	1A	.	2f	-sta
.	.	.	.	.	.	2.a	hoc,
.	.	[1A	.	2r	.	.	.
.	.	.	.	.	.	4g	.
.	.	.	.	[2a	ge-	4f	.
.	.	.	.	.	.	4e	.
=225	=225	=225	=225	=225	=225	=225	=225
0D	-tor	1A]	.	4a]	.	1d	.
.	.	.	.	4g	.	.	.
.	.	.	.	4f	.	.	.
.	.	.	.	4e	.	.	.
.	.	1A	-ni-	2d	.	2r	.
.	.	.	.	2f	.	2a	ge-
=226	=226	=226	=226	=226	=226	=226	=226
0r	.	1G	-tor,	2e	-ni-	2b	.
.	.	.	.	2d	-tor,	2.dd	.
.	.	2r	.	2r	.	.	.
.	.	.	.	.	.	4cc	.
.	.	2B	ge-	2d	ge-	4b	.
.	.	.	.	.	.	4a	.
=227	=227	=227	=227	=227	=227	=227	=227
1r	.	2c	.	2e	.	2g	-ni-
.	.	2G	.	1g	-ni-	2b	.
1D	o-	2d	.	.	.	1a	.
.	.	2d	-ni-	2f#i	.	.	.
=228	=228	=228	=228	=228	=228	=228	=228
1E	.	1B	-tor	2g	-tor	1g	-tor
.	.	.	.	2G	.	.	.
1D	-pti-	1d	o-	2A	.	1r	.
.	.	.	.	2B	.	.	.
=229	=229	=229	=229	=229	=229	=229	=229
0C	-me,	1e	.	1c	o-	2r	.
.	.	.	.	.	.	2g	o-
.	.	1e	-pti-	1c	-pti-	2a	.
.	.	.	.	.	.	[2g	-pti-
=230	=230	=230	=230	=230	=230	=230	=230
0BB	.	1d	-me,	1G	-me,	2g]	.
.	.	.	.	.	.	4f	.
.	.	.	.	.	.	4e	.
.	.	2r	.	2r	.	2d	-me,
.	.	2B	o-	2d	o-	2g	o-
=231	=231	=231	=231	=231	=231	=231	=231
0AA	.	2c	.	2e	.	2a	.
.	.	2.e	-pti-	2c	.	2.cc	-pti-
.	.	.	.	2e	.	.	.
.	.	4d	.	.	.	4b	.
.	.	4c	.	2e	-pti-	4a	.
.	.	4B	.	.	.	4g	.
=232	=232	=232	=232	=232	=232	=232	=232
0D	.	1A	-me,	[0d	-me,	1f	-me,
.	.	2r	.	.	.	2r	.
.	.	[2A	ma-	.	.	[2f	ma-
=233	=233	=233	=233	=233	=233	=233	=233
0D	ma-	2A]	.	0d]	.	2f]	.
.	.	4G	.	.	.	4e	.
.	.	4F	.	.	.	4d	.
.	.	2A	.	.	.	2f	.
.	.	2B	.	.	.	2f	-xi-
=234	=234	=234	=234	=234	=234	=234	=234
1C	-xi-	1c	.	1r	.	1e	-me,
1D	.	1A	-xi-	2r	.	2r	.
.	.	.	.	[2f	ma-	[2a	ma-
=235	=235	=235	=235	=235	=235	=235	=235
0D	-me,	0A	-me,	2f]	.	2a]	.
.	.	.	.	4e	.	4g	.
.	.	.	.	4d	.	4f	.
.	.	.	.	2f	.	2a	.
.	.	.	.	2f	-xi-	2a	-xi-
=236	=236	=236	=236	=236	=236	=236	=236
0r	.	1r	.	0e	-me,	1g	-me,
.	.	2r	.	.	.	2r	.
.	.	[2A	[ma-	.	.	[2cc	[ma-
=237	=237	=237	=237	=237	=237	=237	=237
0r	.	2A]	.	1r	.	2cc]	.
.	.	4G	.	.	.	4b	.
.	.	4F	.	.	.	4a	.
.	.	2A	.	2r	.	2cc	.
.	.	2A	-xi-	[2e	ma-	2cc	-xi-
=238	=238	=238	=238	=238	=238	=238	=238
1r	.	1G	-me,]	2e]	.	1b	-me,]
.	.	.	.	4d	.	.	.
.	.	.	.	4c	.	.	.
1C	et	1c	et	2e	.	2r	.
.	.	.	.	2e	-xi-	2g	et
=239	=239	=239	=239	=239	=239	=239	=239
0D	tu,	1A	tu,	2d	-me,	2f	tu,
.	.	.	.	2f	.	1a	na-
.	.	2d	na-	1f	et	.	.
.	.	2d	-te	.	.	2b	-te
=240	=240	=240	=240	=240	=240	=240	=240
0C	.	1e	De-	1g	.	2.cc	De-
.	.	.	.	.	.	4b	.
.	.	2c	.	2e	tu,	4a	.
.	.	.	.	.	.	4g	.
.	.	2e	.	2g	.	2cc	.
=241	=241	=241	=241	=241	=241	=241	=241
1D	na-	2d	.	1f	na-	2b	.
.	.	2c	.	.	.	1a	.
1E	.	1B	.	1e	.	.	.
.	.	.	.	.	.	2g#i	.
=242	=242	=242	=242	=242	=242	=242	=242
0F	.	2.A	.	1c	-te	0a	-i,
.	.	4B	.	.	.	.	.
.	.	4c	.	1f	.	.	.
.	.	4d	.	.	.	.	.
.	.	[2c	.	.	.	.	.
=243	=243	=243	=243	=243	=243	=243	=243
0E	.	2c]	.	1g	De-	1r	.
.	.	4B	.	.	.	.	.
.	.	4A	.	.	.	.	.
.	.	2B	.	1e	.	1g	et
.	.	2G	.	.	.	.	.
=244	=244	=244	=244	=244	=244	=244	=244
0D	-te	0d	.	1.f	.	1.a	tu,
.	.	.	.	2d	.	2b	na-
=245	=245	=245	=245	=245	=245	=245	=245
0C	De-	1G	.	2e	.	2cc	.
.	.	.	.	2f	.	2dd	-te
.	.	1c	.	1g	.	1ee	De-
=246	=246	=246	=246	=246	=246	=246	=246
0D	.	0A	.	0f	-i,	1dd	.
.	.	.	.	.	.	2a	.
.	.	.	.	.	.	[2dd	.
=247	=247	=247	=247	=247	=247	=247	=247
0D	-i,	1A	-i,	2r	.	2dd]	.
.	.	.	.	2.a	et	4cc	.
.	.	.	.	.	.	4b	.
.	.	1r	.	.	.	2a	.
.	.	.	.	4g	.	.	.
.	.	.	.	4f	.	2d	-i,
.	.	.	.	4e	.	.	.
=248	=248	=248	=248	=248	=248	=248	=248
0r	.	0B	et	4d	.	2r	.
.	.	.	.	4c	.	.	.
.	.	.	.	4B	.	1dd	et
.	.	.	.	4A	.	.	.
.	.	.	.	2G	.	.	.
.	.	.	.	[2g	bo-	2b	bo-
=249	=249	=249	=249	=249	=249	=249	=249
1r	.	1A	bo-	2g]	.	1cc	.
.	.	.	.	2f#i	.	.	.
[1E	et	2.G	-ne	1g	-ne	1b	-ne,
.	.	4A	.	.	.	.	.
=250	=250	=250	=250	=250	=250	=250	=250
1E]	.	2B	.	2g	Spi-	0r	.
.	.	1c	Spi-	2e	.	.	.
1D	bo-	.	.	1f	.	.	.
.	.	2B	.	.	.	.	.
=251	=251	=251	=251	=251	=251	=251	=251
1C	-ne	2c	.	2e	.	1ee	et
.	.	2.G	.	2c	.	.	.
1BB	.	.	.	1d	-ri-	1dd	bo-
.	.	4A	.	.	.	.	.
.	.	2B	.	.	.	.	.
=252	=252	=252	=252	=252	=252	=252	=252
0C	Spi-	2A	.	0e	-tus,	2.cc	-ne
.	.	2G	.	.	.	.	.
.	.	.	.	.	.	4b	.
.	.	2.c	.	.	.	2a	.
.	.	.	.	.	.	2g	.
.	.	4B	.	.	.	.	.
=253	=253	=253	=253	=253	=253	=253	=253
0D	.	1A	.	1d	.	1f	Spi-
.	.	2F	.	1A	Spi-	2d	.
.	.	[2A	.	.	.	[2f	.
=254	=254	=254	=254	=254	=254	=254	=254
0C	.	2A]	.	1c	.	2f]	.
.	.	4G	.	.	.	4e	.
.	.	4F	.	.	.	4d	.
.	.	2G	.	1c	-ri-	2e	.
.	.	2G	-ri-	.	.	2e	-ri-
=255	=255	=255	=255	=255	=255	=255	=255
0D	-ri-	1F	-tus,	[0A	-tus,	1d	-tus,
.	.	2r	.	.	.	2r	.
.	.	2F	Spi-	.	.	[2d	Spi-
=256	=256	=256	=256	=256	=256	=256	=256
0D	-tus,	2D	.	0A]	.	4d]	.
.	.	.	.	.	.	4e	.
.	.	2.d	.	.	.	4f	.
.	.	.	.	.	.	4g	.
.	.	.	.	.	.	4a	.
.	.	4e	.	.	.	4g	.
.	.	4f	.	.	.	4a	.
.	.	4d	.	.	.	4b	.
=257	=257	=257	=257	=257	=257	=257	=257
0r	.	2.e	.	0r	.	2.cc	.
.	.	4d	.	.	.	4b	.
.	.	2c	.	.	.	2a	.
.	.	2B	.	.	.	[2g	.
=258	=258	=258	=258	=258	=258	=258	=258
1r	.	1A	-ri-	1c	re-	2g]	.
.	.	.	.	.	.	2f#i	-ri-
1C	re-	1G	-tus,	2.e	-gnans	1g	-tus,
.	.	.	.	4f	.	.	.
=259	=259	=259	=259	=259	=259	=259	=259
0E	-gnans	2G	re-	1g	.	1r	.
.	.	1B	.	.	.	.	.
.	.	.	.	1r	.	2r	.
.	.	[2c	-gnans	.	.	2g	re-
=260	=260	=260	=260	=260	=260	=260	=260
1F	per-	2c]	.	2r	.	1a	.
.	.	2d	per-	2f	per-	.	.
[1G	-pe-	2B	.	2d	-pe-	2b	-gnans
.	.	[2d	-pe-	[2g	.	[2b	per-
=261	=261	=261	=261	=261	=261	=261	=261
1G]	.	2d]	.	4g]	.	2b]	.
.	.	.	.	4f	.	.	.
.	.	4c	.	4e	.	4a	.
.	.	4B	.	4d	.	4g	.
1F	-tu-	2c	.	2f	.	2a	-pe-
.	.	2c	-tu-	2f	-tu-	2a	-tu-
=262	=262	=262	=262	=262	=262	=262	=262
1G	.	1B	-o	1d	-o	2g	-o
.	.	.	.	.	.	2dd	ful-
1G	-o	2r	.	[1g	ful-	2ee	.
.	.	2d	ful-	.	.	2dd	.
=263	=263	=263	=263	=263	=263	=263	=263
0G	ful-	1e	-gi-	1g]	.	2g	.
.	.	.	.	.	.	1cc	.
.	.	1d	.	1g	-gi-	.	.
.	.	.	.	.	.	2b	-gi-
=264	=264	=264	=264	=264	=264	=264	=264
0A	.	0c	-da,	1e	-da,	1cc	-da,
.	.	.	.	1f	.	2r	.
.	.	.	.	.	.	2cc	ful-
=265	=265	=265	=265	=265	=265	=265	=265
0G	.	0B	.	1d	.	1.dd	-gi-
.	.	.	.	1g	[ful-	.	.
.	.	.	.	.	.	2ee	.
=266	=266	=266	=266	=266	=266	=266	=266
0F	-gi-	1c	ful-	1.a	.	1.ff	.
.	.	1d	-gi-	.	.	.	.
.	.	.	.	2A	-gi-	2f	-gi-
=267	=267	=267	=267	=267	=267	=267	=267
0E	.	0e	-da,	2B	-da]	2g	-da
.	.	.	.	2c	.	1a	.
.	.	.	.	1B	.	.	.
.	.	.	.	.	.	2g#i	.
=268	=268	=268	=268	=268	=268	=268	=268
0F	.	1d	ful-	0A	.	0a	.
.	.	[1c	.	.	.	.	.
=269	=269	=269	=269	=269	=269	=269	=269
0D	-da	2c]	.	0f	.	1r	.
.	.	4B	.	.	.	.	.
.	.	4A	.	.	.	.	.
.	.	1B	-gi-	.	.	1dd	Tri-
=270	=270	=270	=270	=270	=270	=270	=270
0C	.	1c	.	0e	.	1.ee	.
.	.	1A	.	.	.	.	.
.	.	.	.	.	.	2cc	-ni-
=271	=271	=271	=271	=271	=271	=271	=271
0C	Tri-	0G	-da	2r	.	0cc	-tas
.	.	.	.	1e	Tri-	.	.
.	.	.	.	4d	.	.	.
.	.	.	.	4c	.	.	.
=272	=272	=272	=272	=272	=272	=272	=272
1BB	-ni-	2r	.	1d	.	1r	.
.	.	2G	Tri-	.	.	.	.
1C	.	2E	.	2c	.	1g	per
.	.	[2G	.	[2e	.	.	.
=273	=273	=273	=273	=273	=273	=273	=273
0C	-tas	4G]	.	4e]	.	0g	cun-
.	.	4F	.	4d	.	.	.
.	.	4E	.	4c	.	.	.
.	.	4D	.	4B	.	.	.
.	.	1E	.	1c	.	.	.
=274	=274	=274	=274	=274	=274	=274	=274
0r	.	2D	.	2d	.	1f	-cta
.	.	1d	-ni-	2d	-ni-	.	.
.	.	.	.	1A	-tas	1e	.
.	.	2c#i	.	.	.	.	.
=275	=275	=275	=275	=275	=275	=275	=275
1r	.	1d	-tas	1r	.	0f	.
1D	per	2r	.	1d	per	.	.
.	.	[2A	per	.	.	.	.
=276	=276	=276	=276	=276	=276	=276	=276
0D	cun-	2A]	.	1.f	cun-	0d	pi-
.	.	4G	.	.	.	.	.
.	.	4F	.	.	.	.	.
.	.	2A	.	.	.	.	.
.	.	2B	.	2f	-cta	.	.
=277	=277	=277	=277	=277	=277	=277	=277
0C	-cta	2c	.	1e	pi-	0g	-e
.	.	2G	.	.	.	.	.
.	.	2E	cun-	1e	-e	.	.
.	.	[2G	.	.	.	.	.
=278	=278	=278	=278	=278	=278	=278	=278
0BB	.	2G]	.	2.d	sae-	1r	.
.	.	4F	.	.	.	.	.
.	.	4E	.	4c	.	.	.
.	.	2D	.	2B	.	2r	.
.	.	2G	.	2B	-cu-	2d	sae-
=279	=279	=279	=279	=279	=279	=279	=279
0C	.	1E	-cta	1G	-la,	2e	.
.	.	.	.	.	.	2.g	-cu-
.	.	2r	.	2r	.	.	.
.	.	.	.	.	.	4f	.
.	.	2G	pi-	[2c	pi-	4e	.
.	.	.	.	.	.	4d	.
=280	=280	=280	=280	=280	=280	=280	=280
0AA	pi-	2A	-e	4c]	.	1c	-la,
.	.	.	.	4d	.	.	.
.	.	2.c	sae-	2.e	-e	.	.
.	.	.	.	.	.	2r	.
.	.	4B	.	4d	.	.	.
.	.	4A	.	4c	.	2e	pi-
.	.	4G	.	4B	.	.	.
=281	=281	=281	=281	=281	=281	=281	=281
0D	-e	2F	.	1A	sae-	2f	-e
.	.	2.f	.	.	.	2.a	sae-
.	.	.	.	1F	.	.	.
.	.	4e	.	.	.	4g	.
.	.	4d	.	.	.	4f	.
.	.	4c	.	.	.	4e	.
=282	=282	=282	=282	=282	=282	=282	=282
1r	.	1B	.	1G	-cu-	2.d	.
.	.	.	.	.	.	4e	.
1D	sae-	2A	.	2F	-la,	4f	.
.	.	.	.	.	.	4g	.
.	.	2d	.	2f	.	4a	.
.	.	.	.	.	.	4b	.
=283	=283	=283	=283	=283	=283	=283	=283
1C	-cu-	1e	.	1g	.	1cc	.
1D	.	2.d	.	2r	.	2b	.
.	.	.	.	[2f	sae-	[2a	.
.	.	4c	.	.	.	.	.
=284	=284	=284	=284	=284	=284	=284	=284
0D	-la.	2A	.	4f]	.	2a]	.
.	.	.	.	4e	.	.	.
.	.	2B	.	4d	.	1g	.
.	.	.	.	4c	.	.	.
.	.	1A	-cu-	2d	.	.	.
.	.	.	.	2d	-cu-	2f#i	-cu-
=285	=285	=285	=285	=285	=285	=285	=285
00GGl	.	00Gl	-la.	00dl	-la.	00gl	-la.
==	==	==	==	==	==	==	==
*-	*-	*-	*-	*-	*-	*-	*-
!!!system-decoration: [*]
!!!RDF**kern: i = editorial accidental
!!!RDF**kern: l = terminal long
!!!PTL: <i> New Senfl Edition: Motets for Four Voices (A-I) </i>
!!!PPR: Hollitzer Verlag
!!!PC#: Denkmäler der Tonkunst in Österreich 163.1
!!!PDT: 2021
!!!PED: Scott Lee Edwards, Stefan Gasch, and Sonja Tröster
!!!YEC: Copyright 2021 Denkmäler der Tonkunst in Österreich
!!!YEM: CC-BY-NC 4.0 (https://creativecommons.org/licenses/by-nc/4.0/legalcode)
!!!EED: Benjamin Ory
!!!EEV: 2024/11/28
!!!verovio: header encoded
!!!header-left: @{PTL}\n@{PED}, eds.\n@{PC#} (@{PDT})&nbsp;\n
!!!header-right: @{COM}
!!!header-center: @{OTL}